X:1
T:Dominus A dextris tuis
T:Dominus A dextris tuis
L:1/8
Q:1/4=112
M:3/4
K:F
V:1 treble-8 nm="Piano" snm="Pno."
V:1
 f6- | f3 e e2 | a2 a2 a2 | B2 B2 z2 | g2 g2 g2 | f2 f2 z2 | z6 | z2 z2 g2 | ag fe dc | B2 g2 d2 | %10
w: Do-|* mi- nus|a- dex- tris|tu- is|a dex- tris|tu- is||con-|fre- * * * * *||
 e2 dc f2- | fd g4 | f2 z4 | z6 | z6 | =B6 | =B4 A2 | f2 e4 | e4 e2 | z6 | z6 | z2 g4 | g2 ^f4 | %23
w: ||git|||in|di- e|i- rae|su ae,|||in|di- e|
 B6 | A6 | A2 G4 | z6 | z6 | z2 f4 | f2 e4 | a6 | g6 | g2 f4 | d2 c4 | c2 f4 | f4 g2 | g6 | g6 | %38
w: i|rae|su- ae|||in-|di- e|i-|rae|i- rae|su- ae,|i- *|rae,- *|i-|rae|
 ^c6 | f6 | B6- | B2 e2 A2 | A4 e2 | d2 d2 z2 | z2 z2 d2 | e2 e2 z2 | z2 z2 c2 | d3 e dB | e4 d2 | %49
w: su-|ae|re-||ges, con-|fre- git,|con-|fre- git|in-|di- e i- rae|su ae|
 AB A2 e2 | f2 z4 | z6 | z6 | z6 | z6 | z6 | z6 | z6 | z6 | z6 | z6 | z6 | z6 | z6 | z6 | z6 | z6 | %67
w: re- * * *|ges|||||||||||||||||
 z6 | z6 | z6 | z6 | z6 | z6 | z6 | z6 | z6 | z6 | z6 | z6 | z6 | z6 | z6 | z6 | z6 | z6 | z6 | %86
w: |||||||||||||||||||
 z6 | z6 | z6 | z6 | z6 | z6 | z6 | z6 | z6 | z6 | z6 | z6 | z6 | z6 |] %100
w: ||||||||||||||

